icons/inbox-percent.svg

<svg xmlns="http://www.w3.org/2000/svg" width="24" height="24" viewBox="0 0 24 24">
  <path d="M6,16 L6.11662113,16.0067277 C6.61395981,16.0644928 7,16.4871642 7,17 C7,18.5976809 8.24891996,19.9036609 9.82372721,19.9949073 L10,20 L14,20 L14.1762728,19.9949073 C15.6927538,19.9070404 16.9070404,18.6927538 16.9949073,17.1762728 L17,17 L17.0067277,16.8833789 C17.0600494,16.424297 17.424297,16.0600494 17.8833789,16.0067277 L18,16 L22,16 L22,20 C22,21.1045695 21.1045695,22 20,22 L4,22 C2.8954305,22 2,21.1045695 2,20 L2,16 L6,16 Z M20,2 C21.1045695,2 22,2.8954305 22,4 L22,14 L18,14 L17.8237272,14.0050927 C16.24892,14.0963391 15,15.4023191 15,17 C15,17.5128358 14.6139598,17.9355072 14.1166211,17.9932723 L14,18 L10,18 L9.88337887,17.9932723 C9.42429701,17.9399506 9.06004937,17.575703 9.00672773,17.1166211 L9,17 L8.99490731,16.8237272 C8.90704038,15.3072462 7.69275384,14.0929596 6.17627279,14.0050927 L6,14 L2,14 L2,4 C2,2.8954305 2.8954305,2 4,2 L20,2 Z M15.7071068,11.2928932 C15.3165825,10.9023689 14.6834175,10.9023689 14.2928932,11.2928932 C13.9023689,11.6834175 13.9023689,12.3165825 14.2928932,12.7071068 C14.6834175,13.0976311 15.3165825,13.0976311 15.7071068,12.7071068 C16.0976311,12.3165825 16.0976311,11.6834175 15.7071068,11.2928932 Z M15.7071068,5.29289322 C15.3165825,4.90236893 14.6834175,4.90236893 14.2928932,5.29289322 L14.2928932,5.29289322 L8.29289322,11.2928932 L8.20970461,11.3871006 C7.90467972,11.7793918 7.93240926,12.3466228 8.29289322,12.7071068 C8.68341751,13.0976311 9.31658249,13.0976311 9.70710678,12.7071068 L9.70710678,12.7071068 L15.7071068,6.70710678 L15.7902954,6.61289944 C16.0953203,6.22060824 16.0675907,5.65337718 15.7071068,5.29289322 Z M9.70710678,5.29289322 C9.31658249,4.90236893 8.68341751,4.90236893 8.29289322,5.29289322 C7.90236893,5.68341751 7.90236893,6.31658249 8.29289322,6.70710678 C8.68341751,7.09763107 9.31658249,7.09763107 9.70710678,6.70710678 C10.0976311,6.31658249 10.0976311,5.68341751 9.70710678,5.29289322 Z"/>
</svg>

<svg xmlns="http://www.w3.org/2000/svg" viewBox="0 0 24 24">
  <path d="M6 16h.12A1 1 0 0 1 7 17a3 3 0 0 0 2.82 3h4.36a3 3 0 0 0 2.81-2.82L17 17v-.12a1 1 0 0 1 .88-.87L18 16h4v4a2 2 0 0 1-2 2H4a2 2 0 0 1-2-2v-4h4zM20 2a2 2 0 0 1 2 2v10h-4.18A3 3 0 0 0 15 17a1 1 0 0 1-.88 1H9.88a1 1 0 0 1-.87-.88L9 17v-.18a3 3 0 0 0-2.82-2.81L6 14H2V4c0-1.1.9-2 2-2h16zm-4.3 9.3a1 1 0 1 0-1.4 1.4 1 1 0 0 0 1.4-1.4zm0-6a1 1 0 0 0-1.4 0l-6 6-.09.09a1 1 0 0 0 1.5 1.32l6-6 .08-.1a1 1 0 0 0-.08-1.32zm-6 0a1 1 0 1 0-1.4 1.4 1 1 0 0 0 1.4-1.4z"/>
</svg>
